!!!OTL: "Elisabeth" DIE HEILIGE ELISABETH
!!!ARE: Europa, Mitteleuropa, Deutschland, Hessen
!!!SCT: Z1116
!!!YEM: Copyright 1995, estate of Helmut Schaffrath.
**kern
*ICvox
*Ivox
*M2/4
*k[f#c#g#]
*A:
{8a
=1
8a
8gn
8fn
8e
=2
8d
8c#
8d}
{8e
=3
8fn
8e
8f#
8g#
=4
8a
8a
8r}
{8a
=5
8a
8g#
8f#
8g#
=6
8a
8b
8ccn}
{8dd
=7
8ee
8dd
8ccn
8ee
=8
8dd
8ccn
8r}
{8b
=9
8dd
8ccn
8b
8ee
=10
8dd
8ccn
8b}
{8ccn
=11
8dd
8ccn
8b
16dd
16dd
=12
8ccn
8b
8a}
{8a
=13
8b
8a
8dd
16ccn
16ccn
=14
4b
8a}
==
!!!AGN: Romanze, Ballade, geistlich
!!!ONB: ESAC (Essen Associative Code) Database: ZUCCAL
!!!AMT: simple duple
!!!AIN: vox
!!!EED: Helmut Schaffrath
!!!EEV: 1.0
*-
